X:1
T:En contemplant
T:Morpain
T:Source : Livre XVI de 29 chansons nouvelles à 4 parties---Paris---P.Attaingnant---1545. Editor : André Vierendeels (25/06/18) Notes : Original clefs : G2, C2, C3, C4 Original note values have been halved Editorial accidentals above the staff
T:En contemplant
T:©
T:©
C:Morpain
Z:©
%%score [ 1 2 [ 3 4 ] ]
L:1/8
Q:1/4=120
M:2/2
K:C
V:1 treble nm="Soprano" snm="S"
V:2 treble nm="Alto" snm="A"
V:3 treble-8 nm="Tenor 1" snm="T 1"
V:4 treble-8 nm="Tenor 2" snm="T 2"
V:1
 A4 A2 A2 | AGAB c4 | z2 e2 e2 e2 | d2 c2 BAGA | Bc d3 cBA | B2 A4 G2 | A4 z2 A2 | A4 d4 | %8
w: En con- tem-|plant _ _ _ _|ung iour ta|grand beaul- * * * *|||té, e-|spoir me|
 c2 A2 c2 c2 | GFGA B2 A2- | A2 G2 A4- | A8- | A4 z4 | z2 d4 c2 | dcde f2 e2 | e3 d c2 B2- | %16
w: dict que iau- roys|iou- * * * * ys-|* san- ce,|_||mais de|la _ _ _ voir, il|n'est à ma puis-|
 B2 A4 G2 |[M:2/4] A4 |:[M:2/2] z4 A4- | A4 A4 | ABcA B4 | A2 A2 c2 c2 | G3 A B2 A2 | A4 z2 e2 | %24
w: * san- *|ce,|car|_ en|ton _ _ _ _|cueur n'y a que|cru- * * aul-|té, n'y|
 f2 e4 cd | e2 f3 e d2- |"^#" d2 c2 !fermata!d4 :| %27
w: a que cru- *||* aul- té.|
V:2
 F4 F2 F2 | E2 A2 A2 A2 | G3 F EFGA | B2 A2 G4 | z2 D2 D2 A2 | G2 F2 GFED | E4 D4- | D4 z2 A2 | %8
w: En con- tem-|plant ung iour ta|grand _ _ _ _ _|_ beaul- té,|ung iour ta|grand beaul- * * * *|* té,|_ e-|
 A2 A2 E4 | z2 G2 GFED | E2 E2 C2 D2 | A,2 F4 E2 | FEFG A3 G/F/ | E2 B4 A2- |"^#" A2 G2 A2 A2 | %15
w: spoir me dict|que iau- * * *|roys iou- ys- san-|ce, mais de|la- * * * voir, _ _|_ mais de|_ la voir, il|
 A2 E2 A2 G2- | GFED E4 |[M:2/4] C4 |:[M:2/2] z4 F4- | F4 E3 D | E2 F4 E2 | F2 F2 A2 A2 | %22
w: n'est à ma puis-|* * * * san-|ce,|car|_ en _|_ ton cueur|n'y a que cru-|
 EDEF G2 E2 | F4 E2 A2- | A2 c2 c2 G2 | B2 A2 A4- | A4 !fermata!A4 :| %27
w: |aul- té, n'y|_ a que cru-|* * aul-|* té.|
V:3
 d4 d2 d2 | cBcd e4- | e8 | z2 e2 e2 e2 | dcBc de f2 | e2 f3 e d2- | d2 c2 d2 d2 | f4 f4 | %8
w: En con- tem-|plant _ _ _ _|_|ung iour ta|grand _ _ _ _ _ _|_ beual- * *|* * té, e-|spoir me|
 e2 c2 c2 c2 | e2 e2 dcBA | B4 A4 | z2 d4 c2 | dcde f2 ed | c2 d2 f2 e2 | d4 c2 e2 | e2 c2 e2 e2 | %16
w: dict que iau- roys|iou- ys- san- * * *|* ce,-|mais de|la _ _ _ voir, _ _|_ mais de la|_ voir, il|n'est à ma puis-|
 dcBA B4 |[M:2/4] A4 |:[M:2/2] z4 A4 | A2 d4 cB | c4 z2 B2 | d2 c2 A2 c2- | c2 BA e2 c2 | %23
w: san- * * * *|ce,|car|en ton _ _|cueur n'y|a que cru- *||
 d4 c2 c2 | d2 c2 e3 f | g2 c2 f4 | e4 !fermata!d4 :| %27
w: aul- té, n'y|a que cru- *||aul- té.|
V:4
 D4 D2 D2 | A8 | z2 c2 c2 c2 | G2 A2 E4 | z2 G2 G2 F2 | G2 A2 B4 | A4 D4 | z2 d2 d2 d2 | A4 z2 A2 | %9
w: En con- tem-|plant|ung iour ta|grand beaul- té,|ung iour ta|brand beaul- *|* té,|e- spoir me|dict que|
 c2 c2 G2 A2 | E4 F2 D2- | DEFG A4 |"^#" D6 A2- | A2 G2 ABcA | B4 A2 A2 | A6 E2 | G2 A2 E4 | %17
w: iau- rous iou- ys-|san- * *||ce, mais|_ de la- * * *|* voir, il|n'est à|ma puis- san-|
[M:2/4] A4 |:[M:2/2] z4 D4- | D4 A4- | A2 GF G4 | F4 z2 A2 | c2 c2 G2 A2 | DEFG A4 | z2 A2 c2 c2 | %25
w: ce,|car|_ en|_ _ _ ton|cueur n'y|a que cru- aul-|té, _ _ _ _|n'y a que|
 G2 A2 DEFG | A4 !fermata!D4 :| %27
w: cru- * aul- * * *|* té.|

